X: 26042
T: McAuley's
R: reel
M: 4/4
K: Bminor
FBBF BcdB|EAAE ABcA|GBBG Bcde|~f3 e fbba|
bafe ~f3e|afec AcBA|FBBF Bcde|1 ~f2ec dBBA:|2 ~f2ec BGFD||
K:Ador
EAAB ABcd|egdB cBAc|BGGF ~G2dG|~G2 dG eGdG|
EAAG ABcd|egfa ~g3a|bgaf gedB|BAAG ~A3 G:|

